!! 00000] TT[00
!! NN
!!!OTL: Yang yanmai
!!!ARE: Asia, China, Shanxi Yaoxian
!! Ethnic Group: Han
!! I, 81, 1)
!!!SCT: C0032
!!!YEM: Copyright 1995, estate of Helmut Schaffrath.
**kern
*ICvox
*Ivox
!! Mixed meters:  2/4; 3/4
*M3/4
*k[b-]
*F:
{8f
16e-
16f
8d
8c
=1
*M2/4
8f
16e-
16f
8d
8c}
=2
*M3/4
{8cc
8cc
8ff
8dd
8ff
8dd
=3
*M2/4
8dd
16cc
16dd
8cc
8cc
=4
8ff
16cc
16ff
8b-
8g
=5
8f
8e-
8r
8cc
=6
4.g
8r}
=7
{8f
8g
8cc
8cc
=8
8dd
8cc
8b-
8g
=9
8cc
16b-
16cc
8ff
8b-
=10
16g
16b-
16g
16f
4e-}
=11
{16g
16cc
4cc
8ff
=12
8b-
16g
16b-
8f
8e-
=13
8c
8c
8f
8d
=14
2c}
==
!!!AGN: Xiaodiao. Xushu laodong shenghuo
!! Alle 7 klingen tiefer,  mit Pfeil nach unten in der Vorlage
!!    notiert ).
!!!ONB: ESAC (Essen Associative Code) Database: CHINA
!!!AMT: irregular
!!!AIN: vox
!!!EED: Helmut Schaffrath
!!!EEV: 1.0
*-
